Simply-White-Circles/scalable/emotes/face-pirate.svg

<svg xmlns="http://www.w3.org/2000/svg" width="48" height="48" viewBox="0 0 12.7 12.7"><path d="M6.34.07a6.29 6.29 0 0 0-6.29 6.3 6.29 6.29 0 0 0 6.3 6.28 6.29 6.29 0 0 0 6.28-6.29A6.29 6.29 0 0 0 6.34.07zM6.32 1l.01.01a5.4 5.4 0 0 1 4.9 3.15l-8.2-2.04A5.4 5.4 0 0 1 6.33 1zM2.51 2.58l3.92.98a1.88 2.36 0 0 0-.1.71 1.88 2.36 0 0 0 1.89 2.36 1.88 2.36 0 0 0 1.87-2.16l1.4.35a5.4 5.4 0 0 1 .24 1.59 5.4 5.4 0 0 1-5.4 5.41 5.4 5.4 0 0 1-5.41-5.4 5.4 5.4 0 0 1 1.59-3.84zm1.77 1.09a.66 1.55 0 0 0-.65 1.55.66 1.55 0 0 0 .65 1.54.66 1.55 0 0 0 .66-1.54.66 1.55 0 0 0-.66-1.55zm-.01.43a.2.3 0 0 1 .2.3.2.3 0 0 1-.2.3.2.3 0 0 1-.2-.3.2.3 0 0 1 .2-.3zm5.39 2.25C8.5 9.28 6.53 9.75 4.16 9.1l.13.3c2.34.76 4.28.47 5.5-2.74l-.13-.31zm-1.5 3.24c-.51.55-1.11.62-1.73.63l.1.32c.62 0 1.2-.13 1.74-.63l-.1-.32z" fill="#e6e6e6"/></svg>

<?xml version="1.0" encoding="UTF-8" standalone="no"?>
<svg
   xmlns:dc="http://purl.org/dc/elements/1.1/"
   xmlns:cc="http://creativecommons.org/ns#"
   xmlns:rdf="http://www.w3.org/1999/02/22-rdf-syntax-ns#"
   xmlns:svg="http://www.w3.org/2000/svg"
   xmlns="http://www.w3.org/2000/svg"
   xmlns:sodipodi="http://sodipodi.sourceforge.net/DTD/sodipodi-0.dtd"
   xmlns:inkscape="http://www.inkscape.org/namespaces/inkscape"
   width="48"
   height="48"
   viewBox="0 0 12.7 12.7"
   version="1.1"
   id="svg4"
   sodipodi:docname="face-pirate.svg"
   inkscape:version="0.92.4 (5da689c313, 2019-01-14)">
  <metadata
     id="metadata10">
    <rdf:RDF>
      <cc:Work
         rdf:about="">
        <dc:format>image/svg+xml</dc:format>
        <dc:type
           rdf:resource="http://purl.org/dc/dcmitype/StillImage" />
        <dc:title></dc:title>
      </cc:Work>
    </rdf:RDF>
  </metadata>
  <defs
     id="defs8" />
  <sodipodi:namedview
     pagecolor="#ffffff"
     bordercolor="#666666"
     borderopacity="1"
     objecttolerance="10"
     gridtolerance="10"
     guidetolerance="10"
     inkscape:pageopacity="0"
     inkscape:pageshadow="2"
     inkscape:window-width="1087"
     inkscape:window-height="480"
     id="namedview6"
     showgrid="false"
     inkscape:zoom="4.9166667"
     inkscape:cx="2.1355932"
     inkscape:cy="24"
     inkscape:window-x="0"
     inkscape:window-y="25"
     inkscape:window-maximized="0"
     inkscape:current-layer="svg4" />
  <path
     d="M 6.34,0.07 A 6.29,6.29 0 0 0 0.05,6.37 6.29,6.29 0 0 0 6.35,12.65 6.29,6.29 0 0 0 12.63,6.36 6.29,6.29 0 0 0 6.34,0.07 Z M 6.32,1 6.33,1.01 a 5.4,5.4 0 0 1 4.9,3.15 L 3.03,2.12 A 5.4,5.4 0 0 1 6.33,1 Z M 2.51,2.58 6.43,3.56 a 1.88,2.36 0 0 0 -0.1,0.71 1.88,2.36 0 0 0 1.89,2.36 1.88,2.36 0 0 0 1.87,-2.16 l 1.4,0.35 A 5.4,5.4 0 0 1 11.73,6.41 5.4,5.4 0 0 1 6.33,11.82 5.4,5.4 0 0 1 0.92,6.42 5.4,5.4 0 0 1 2.51,2.58 Z M 4.28,3.67 A 0.66,1.55 0 0 0 3.63,5.22 0.66,1.55 0 0 0 4.28,6.76 0.66,1.55 0 0 0 4.94,5.22 0.66,1.55 0 0 0 4.28,3.67 Z M 4.27,4.1 A 0.2,0.3 0 0 1 4.47,4.4 0.2,0.3 0 0 1 4.27,4.7 0.2,0.3 0 0 1 4.07,4.4 0.2,0.3 0 0 1 4.27,4.1 Z M 9.66,6.35 C 8.5,9.28 6.53,9.75 4.16,9.1 l 0.13,0.3 c 2.34,0.76 4.28,0.47 5.5,-2.74 z m -1.5,3.24 c -0.51,0.55 -1.11,0.62 -1.73,0.63 l 0.1,0.32 c 0.62,0 1.2,-0.13 1.74,-0.63 L 8.17,9.59 Z"
     id="path2"
     inkscape:connector-curvature="0"
     style="fill:#e6e6e6" />
</svg>
